X: 5065
T: Bridal, The
R: jig
M: 6/8
K: Eminor
|"G"G2G BGB|"D7"def "G"gfg|"C"ecA "G"dBG|"D7"FAG FED|"G"G2G BGB|"D7"def "G"gfg|"C"ecA "G"dBG|"D7"cAF "G"G2:|
"Em"B2e edB|"D"def "Em"g2a|bag "D"agf|"Em"e2e edB|"Em"B2e edB|"D"def "Em"g2a|bag "D"agf|1 "Em"e2e e2:|2 "Em "e3 "D7"d2||

